!!!COM: Music21
!!!OTL: jig_Behind-The-Haystack
!!!OMV: jig_Behind-The-Haystack
**kern
*clefG2
*k[f#c#]
*D:
*M6/8
=1
4dd
8ee
8ff#L
8dd
8bJ
=
4dd
8ee
8ff#L
8dd
8bJ
=
8aL
8f#
8eJ
4.e
=
8aL
8f#
8eJ
8eL
8f#
8aJ
=
4dd
8ee
8ff#L
8dd
8bJ
=
4dd
8ee
8ff#L
8dd
8bJ
=
8aL
8f#
8dJ
4.d
!!linebreak:original
=
8aL
8f#
8dJ
8dL
8f#
8aJ
=||
*M6/8
4dd
8ee
8ff#L
8dd
8bJ
=
4dd
8ee
8ff#L
8dd
8bJ
=
8aL
8f#
8eJ
4.e
=
8aL
8f#
8eJ
8eL
8f#
8aJ
=
4dd
8ee
8ff#L
8dd
8bJ
=
4dd
8ee
8ff#L
8dd
8bJ
!!linebreak:original
=
8aL
8f#
8dJ
4.d
=
8aL
8f#
8dJ
8dL
8f#
8aJ
=||
4.b
8bL
8a
8f#J
=
8aL
8b
8cc#J
8ddL
8cc#
8bJ
=
8aL
8f#
8eJ
4.e
=
8aL
8f#
8eJ
8eL
8f#
8aJ
=
4.b
8bL
8a
8f#J
!!linebreak:original
=
8aL
8b
8cc#J
8ddL
8cc#
8bJ
=
8aL
8f#
8dJ
4.d
=
8aL
8f#
8dJ
8dL
8f#
8aJ
=||
4.b
8bL
8a
8f#J
=
8aL
8b
8cc#J
8ddL
8cc#
8bJ
=
8aL
8f#
8eJ
4.e
=
8aL
8f#
8eJ
8eL
8f#
8aJ
!!linebreak:original
=
4.b
8bL
8a
8f#J
=
8aL
8b
8cc#J
8ddL
8cc#
8bJ
=
8aL
8f#
8dJ
4.d
=
8aL
8f#
8dJ
4d
8ff#
=||
4.gg
8ff#L
8aa
8ff#J
=
8eeL
8dd
8eeJ
8ff#L
8dd
8bJ
=
8aL
8f#
8eJ
4.e
!!linebreak:original
=
8aL
8f#
8eJ
4e
8ff#
=
4.gg
8ff#L
8aa
8ff#J
=
8eeL
8dd
8eeJ
8ff#L
8dd
8bJ
=
8aL
8f#
8dJ
4.d
=
8aL
8f#
8dJ
4d
8ff#
=||
4.gg
8ff#L
8aa
8ff#J
=
8eeL
8dd
8eeJ
8ff#L
8dd
8bJ
!!linebreak:original
=
8aL
8f#
8eJ
4.e
=
8aL
8f#
8eJ
4e
8ff#
=
4.gg
8ff#L
8aa
8ff#J
=
8eeL
8dd
8eeJ
8ff#L
8dd
8bJ
=
8aL
8f#
8dJ
4.d
=
8aL
8f#
8dJ
8dL
8f#
8aJ
=||
*-
